X:0431
T:Peggy of Darby, or the Dandys.
C:Irish.
M:C
L:1/8
Q:1/2=104
I: :: ::
Z:Jack Campin * www.campin.me.uk * 2009
K:D
A|.d2.d>.d (dc)(BA)|d2 d>e dc`BA|d2 d>d d>faf|ecA>B A3::
f| g>efg    a2  fd |d<BA>G G>FGA|B>cdB  ce`cA|FAdc  d3:|
<end>
<start>
